assets/icons/swiss-knife-filled.svg

<?xml version="1.0" encoding="UTF-8" standalone="no"?>
<svg viewBox="0 0 24 24" height="24" id="svg7384" version="1.1" width="24" sodipodi:docname="utilities-filled.svg" inkscape:version="1.1.2 (08b2f3d93c, 2022-04-05)"
   xmlns:inkscape="http://www.inkscape.org/namespaces/inkscape"
   xmlns:sodipodi="http://sodipodi.sourceforge.net/DTD/sodipodi-0.dtd"
   xmlns="http://www.w3.org/2000/svg"
   xmlns:svg="http://www.w3.org/2000/svg"
   xmlns:rdf="http://www.w3.org/1999/02/22-rdf-syntax-ns#"
   xmlns:cc="http://creativecommons.org/ns#"
   xmlns:dc="http://purl.org/dc/elements/1.1/">
   <sodipodi:namedview pagecolor="#ffffff" bordercolor="#666666" borderopacity="1" objecttolerance="10" gridtolerance="10" guidetolerance="10" inkscape:pageopacity="0" inkscape:pageshadow="2" inkscape:window-width="1920" inkscape:window-height="1043" id="namedview8927" showgrid="true" inkscape:zoom="7.375" inkscape:cx="52.40678" inkscape:cy="7.3220339" inkscape:window-x="1920" inkscape:window-y="0" inkscape:window-maximized="1" inkscape:current-layer="svg7384" inkscape:pagecheckerboard="0">
      <inkscape:grid type="xygrid" id="grid838" />
      <inkscape:grid type="xygrid" id="grid1183" dotted="true" spacingx="0.5" spacingy="0.5" empspacing="10" />
   </sodipodi:namedview>
   <metadata id="metadata20854">
      <rdf:RDF>
         <cc:Work rdf:about="">
            <dc:format>image/svg+xml</dc:format>
            <dc:type rdf:resource="http://purl.org/dc/dcmitype/StillImage" />
         </cc:Work>
      </rdf:RDF>
   </metadata>
   <defs id="defs7386">
      <linearGradient id="linearGradient5606" inkscape:swatch="solid">
         <stop id="stop5608" offset="0" style="stop-color:#000000;stop-opacity:1;" />
      </linearGradient>
      <linearGradient id="linearGradient4526" inkscape:swatch="solid">
         <stop id="stop4528" offset="0" style="stop-color:#ffffff;stop-opacity:1;" />
      </linearGradient>
      <linearGradient id="linearGradient3600-4" inkscape:swatch="gradient">
         <stop id="stop3602-7" offset="0" style="stop-color:#f4f4f4;stop-opacity:1" />
         <stop id="stop3604-6" offset="1" style="stop-color:#dbdbdb;stop-opacity:1" />
      </linearGradient>
   </defs>
   <path id="path348" style="opacity:1;vector-effect:none;fill:#808080;fill-opacity:1;stroke:none;stroke-width:1.25;stroke-linecap:round;stroke-linejoin:round;stroke-miterlimit:4;stroke-dasharray:none;stroke-dashoffset:0;stroke-opacity:1" d="M 6.4863281 2 C 5.4091831 2.00238 4.5116879 2.2812809 3.8964844 2.8964844 C 3.2786339 3.5143349 3 4.4166677 3 5.5 L 3 18.5 C 3 19.583332 3.2786339 20.485665 3.8964844 21.103516 C 4.5143349 21.721366 5.4166677 22 6.5 22 L 7.4863281 22 L 7.5 22 L 8.4863281 22 C 9.5696604 22 10.471993 21.721366 11.089844 21.103516 C 11.707695 20.485665 11.986328 19.583332 11.986328 18.5 L 11.986328 5.5 C 11.986328 4.4166677 11.707695 3.5143349 11.089844 2.8964844 C 10.47464 2.2812809 9.577145 2.00238 8.5 2 C 8.49868 1.9999837 8.4974136 2 8.4960938 2 L 7.8691406 2 L 7.8535156 2 L 7.5 2 L 7.4863281 2 L 7.1328125 2 L 7.1171875 2 L 6.4902344 2 C 6.4889144 2 6.4876481 1.9999837 6.4863281 2 z M 11.589844 2 C 11.66046 2.0603473 11.730297 2.1228747 11.796875 2.1894531 C 12.652659 3.0452365 12.986328 4.2452023 12.986328 5.5 L 12.986328 7 L 15.75 7 L 15.75 6.6933594 C 15.75 5.3083719 16.3075 4.5 17 4.5 C 17.6925 4.5 18.25 5.3083719 18.25 6.6933594 L 18.25 7 C 19.635 7 20.75 5.26 20.75 3.875 C 20.75 2.49 19.635 2 18.25 2 L 11.589844 2 z M 7.5 5 A 1.5 1.5 0 0 1 9 6.5 A 1.5 1.5 0 0 1 7.5 8 A 1.5 1.5 0 0 1 6 6.5 A 1.5 1.5 0 0 1 7.5 5 z M 7.4746094 6 C 7.2104244 6.0133916 7 6.232487 7 6.5 C 7 6.7761424 7.2238576 7 7.5 7 C 7.7761424 7 8 6.7761424 8 6.5 C 8 6.2238576 7.7761424 6 7.5 6 C 7.4913706 6 7.4831315 5.999568 7.4746094 6 z M 12.986328 8.8652344 L 12.986328 13.853516 C 14.418849 14.79684 16.646428 16.359784 19.5 17 C 18.478741 13.095024 15.781279 10.674776 12.986328 8.8652344 z M 15.125 12 C 15.470175 12 15.995662 12.595975 16.21875 12.859375 C 17.7878 15.660975 15.529625 13.530338 14.5 12.625 C 14.5 12.279825 14.779825 12 15.125 12 z " />
</svg>

<svg height="24" width="24" xmlns="http://www.w3.org/2000/svg"><path style="opacity:1;vector-effect:none;fill:gray;fill-opacity:1;stroke:none;stroke-width:1.25;stroke-linecap:round;stroke-linejoin:round;stroke-miterlimit:4;stroke-dasharray:none;stroke-dashoffset:0;stroke-opacity:1" d="M6.486 2c-1.077.002-1.974.281-2.59.896C3.28 3.514 3 4.416 3 5.5v13c0 1.083.279 1.986.896 2.604.618.617 1.52.896 2.604.896h1.986c1.084 0 1.986-.279 2.604-.896.618-.618.896-1.52.896-2.604v-13c0-1.083-.278-1.986-.896-2.604-.615-.615-1.513-.894-2.59-.896H6.486zm5.104 0c.07.06.14.123.207.19.856.855 1.19 2.055 1.19 3.31V7h2.763v-.307c0-1.385.558-2.193 1.25-2.193s1.25.808 1.25 2.193V7c1.385 0 2.5-1.74 2.5-3.125S19.635 2 18.25 2h-6.66zM7.5 5A1.5 1.5 0 0 1 9 6.5 1.5 1.5 0 0 1 7.5 8 1.5 1.5 0 0 1 6 6.5 1.5 1.5 0 0 1 7.5 5zm-.025 1A.5.5 0 1 0 7.5 6h-.025zm5.511 2.865v4.989c1.433.943 3.66 2.506 6.514 3.146-1.021-3.905-3.719-6.325-6.514-8.135zM15.125 12c.345 0 .87.596 1.094.86 1.569 2.801-.69.67-1.719-.235 0-.345.28-.625.625-.625z"/></svg>
